resources/svg/minor-vimeo.svg

<svg xmlns="http://www.w3.org/2000/svg" viewBox="0 0 20 20" fill="currentColor"><path fill="currentColor" d="M16.9217 5.18904C16.6753 4.16063 15.5158 3.86996 14.3448 4.04985C13.7442 4.14348 11.7167 5.04941 11.0259 7.22018C12.2482 7.12449 12.8895 7.30899 12.7719 8.67112C12.722 9.24192 12.4386 9.86635 12.12 10.4654C11.7538 11.1568 11.0648 12.5121 10.163 11.5359C9.35089 10.6551 9.41318 8.97369 9.22824 7.85259C9.12342 7.2222 9.01399 6.44012 8.81031 5.79355C8.63636 5.23638 8.23396 4.56669 7.74185 4.41996C7.21399 4.26457 6.56163 4.50948 6.179 4.73862C4.98736 5.44605 4.0947 6.42068 3.07158 7.26094C2.94248 7.39231 3.01892 7.50265 3.06239 7.60039C3.20933 7.83042 3.2661 7.97001 3.54628 8.01101C4.27368 8.11903 4.96539 7.32456 5.44741 8.15269C5.74225 8.65667 5.83423 9.20944 6.0224 9.75236C6.27281 10.4798 6.46732 11.269 6.67332 12.1038C7.02264 13.5144 7.4488 15.6232 8.65509 16.1421C9.26942 16.4048 10.1932 16.0526 10.6606 15.7717C11.9287 15.0114 12.96 13.9436 13.7625 12.7879C15.8509 9.78261 16.8521 6.76289 16.961 6.18772C17.0384 5.77085 16.9876 5.42681 16.9217 5.18904Z"/></svg>

<svg xmlns="http://www.w3.org/2000/svg" viewBox="0 0 20 20" fill="currentColor"><path fill="currentColor" d="M16.922 5.189c-.247-1.028-1.406-1.319-2.577-1.14-.6.094-2.628 1-3.32 3.171 1.223-.096 1.864.089 1.747 1.451-.05.57-.333 1.195-.652 1.794-.366.692-1.055 2.047-1.957 1.07-.812-.88-.75-2.561-.935-3.682-.105-.63-.214-1.413-.418-2.06-.174-.557-.576-1.226-1.068-1.373-.528-.155-1.18.09-1.563.319-1.192.707-2.084 1.682-3.107 2.522-.13.131-.053.242-.01.34.147.23.204.369.484.41.728.108 1.42-.686 1.901.142.295.504.387 1.056.575 1.6.25.727.445 1.516.651 2.35.35 1.411.776 3.52 1.982 4.04.614.262 1.538-.09 2.006-.371 1.268-.76 2.299-1.828 3.101-2.984 2.089-3.005 3.09-6.025 3.199-6.6.077-.417.027-.761-.04-.999Z"/></svg>
